packages/client-app/static/animations/inbox-zero/tron/tron.hyperesources/Path 12.svg

<?xml version="1.0" encoding="UTF-8" standalone="no"?>
<svg width="119px" height="110px" viewBox="0 0 119 110" version="1.1" xmlns="http://www.w3.org/2000/svg" xmlns:xlink="http://www.w3.org/1999/xlink">
    <!-- Generator: Sketch 3.6.1 (26313) - http://www.bohemiancoding.com/sketch -->
    <title>Path 12</title>
    <desc>Created with Sketch.</desc>
    <defs></defs>
    <g id="Page-1" stroke="none" stroke-width="1" fill="none" fill-rule="evenodd">
        <path d="M13.7109375,109.295898 L13.7109375,91.2282086 L0.509033174,77.9218718 L13.6207259,64.8101791 L13.6207256,41.8132331 L36.6450195,41.8132331 L80.0346312,0.689816164 L99.2666601,0.689816164 L118.297024,19.7201799 L29.5109859,109.295895 L13.7109375,109.295898 Z" id="Path-12" fill="#49585D"></path>
    </g>
</svg>

<svg width="119" height="110" viewBox="0 0 119 110" xmlns="http://www.w3.org/2000/svg"><title>Path 12</title><desc>Created with Sketch.</desc><path d="M13.711 109.296v-18.068l-13.202-13.306 13.112-13.112v-22.997h23.024l43.39-41.123h19.232l19.03 19.03-88.786 89.576h-15.8z" fill="#49585D"/></svg>
